X:1
T:Jovial Hunter
M:2/4
L:1/4
K:C
 D/2| G G| G3/2 /4-| GE/2-E/2| D2| G G| G2| B/2 d/2- d| /4-| d2| e d/2d/2|\
 B- A| G3/2 G/2|
M:3/4
E/2-D/2 D G|
M:2/4
 B B| A G| E/2 G/2- G| z z/2|
